material/.icons/material/sort-variant.svg

<svg xmlns="http://www.w3.org/2000/svg" viewBox="0 0 24 24"><path d="M3 13h12v-2H3m0-5v2h18V6M3 18h6v-2H3v2z"/></svg>

<?xml version="1.0" encoding="UTF-8"?><!DOCTYPE svg PUBLIC "-//W3C//DTD SVG 1.1//EN" "http://www.w3.org/Graphics/SVG/1.1/DTD/svg11.dtd"><svg xmlns="http://www.w3.org/2000/svg" xmlns:xlink="http://www.w3.org/1999/xlink" version="1.1" id="mdi-sort-variant" width="24" height="24" viewBox="0 0 24 24"><path d="M3,13H15V11H3M3,6V8H21V6M3,18H9V16H3V18Z" /></svg>
